src/icons/rollup.svg

<svg width="16" height="16" viewBox="0 0 16 16" fill="none" xmlns="http://www.w3.org/2000/svg">
<path d="M11.95 5.293C11.95 4.703 11.79 4.152 11.507 3.673C10.759 2.933 9.13205 2.761 8.72705 3.67C8.31305 4.602 9.42505 5.64 9.91105 5.557C10.53 5.452 9.80104 4.085 9.80104 4.085C10.748 5.803 10.53 5.277 8.81905 6.854C7.10805 8.431 5.36004 11.759 5.10504 11.899L5.07104 11.916H11.782C11.901 11.916 11.977 11.796 11.924 11.694L10.17 8.35C10.152 8.31506 10.1483 8.27441 10.1599 8.23681C10.1715 8.19921 10.1974 8.16767 10.232 8.149C11.259 7.581 11.951 6.516 11.951 5.293" fill="url(#paint0_linear_38_2546)"/>
<path d="M11.95 5.293C11.95 4.703 11.79 4.152 11.507 3.673C10.759 2.933 9.13205 2.761 8.72705 3.67C8.31305 4.602 9.42505 5.64 9.91105 5.557C10.53 5.452 9.80104 4.085 9.80104 4.085C10.748 5.803 10.53 5.277 8.81905 6.854C7.10805 8.431 5.36004 11.759 5.10504 11.899L5.07104 11.916H11.782C11.901 11.916 11.977 11.796 11.924 11.694L10.17 8.35C10.152 8.31506 10.1483 8.27441 10.1599 8.23681C10.1715 8.19921 10.1974 8.16767 10.232 8.149C11.259 7.581 11.951 6.516 11.951 5.293" fill="url(#paint1_linear_38_2546)"/>
<path d="M5.10492 11.898C5.35992 11.758 7.10692 8.42801 8.81792 6.85201C10.5289 5.27601 10.7479 5.80001 9.80092 4.08301C9.80092 4.08301 6.17892 8.97201 4.86792 11.39" fill="#F07178"/>
<path d="M5.61507 7.51801C8.06107 3.18801 8.38207 2.75201 9.65607 2.75201C10.3261 2.75201 11.0011 3.04201 11.4381 3.56001C11.1271 3.08509 10.7038 2.69424 10.2056 2.42211C9.70736 2.14999 9.14972 2.005 8.58207 2.00001H4.42607C4.38503 1.99947 4.34544 2.01513 4.31586 2.04358C4.28629 2.07203 4.26912 2.11099 4.26807 2.15201V10.216C4.51507 9.60101 4.93607 8.72201 5.61507 7.51801Z" fill="#FC8289"/>
<path d="M8.8179 6.852C7.1079 8.429 5.3599 11.758 5.1049 11.898C4.8499 12.038 4.4219 12.056 4.1949 11.81C3.9529 11.55 3.5759 11.127 5.6149 7.518C8.0599 3.188 8.3799 2.75 9.6549 2.75C10.3249 2.75 11.0009 3.041 11.4379 3.558L11.5079 3.672C10.7609 2.931 9.1329 2.759 8.7289 3.669C8.3139 4.601 9.4259 5.638 9.9119 5.556C10.5319 5.451 9.8029 4.084 9.8029 4.084C10.7479 5.799 10.5289 5.274 8.8179 6.851" fill="url(#paint2_linear_38_2546)"/>
<path opacity="0.3" d="M5.8149 7.71001C8.2609 3.38001 8.5819 2.94401 9.8549 2.94401C10.4069 2.94401 10.9629 3.14201 11.3849 3.50001C11.1635 3.26298 10.8956 3.07414 10.5979 2.94527C10.3003 2.8164 9.97925 2.75027 9.6549 2.75101C8.3809 2.75101 8.0609 3.18801 5.6149 7.51801C3.5759 11.128 3.9529 11.549 4.1949 11.81C4.22944 11.8464 4.26841 11.8783 4.3109 11.905C4.0979 11.607 4.0039 10.915 5.8149 7.71001Z" fill="url(#paint3_linear_38_2546)"/>
<defs>
<linearGradient id="paint0_linear_38_2546" x1="6.67105" y1="9.133" x2="9.50805" y2="9.517" gradientUnits="userSpaceOnUse">
<stop stop-color="#FF6533"/>
<stop offset="0.157" stop-color="#FF5633"/>
<stop offset="0.434" stop-color="#FF4333"/>
<stop offset="0.714" stop-color="#FF3733"/>
<stop offset="1" stop-color="#FF3333"/>
</linearGradient>
<linearGradient id="paint1_linear_38_2546" x1="5.02304" y1="9.669" x2="10.604" y2="12.178" gradientUnits="userSpaceOnUse">
<stop stop-color="#AC4142"/>
<stop offset="1" stop-color="#D14748"/>
</linearGradient>
<linearGradient id="paint2_linear_38_2546" x1="6.7439" y1="7.756" x2="7.8619" y2="8.238" gradientUnits="userSpaceOnUse">
<stop stop-color="#F4BF75"/>
<stop offset="1" stop-color="#FB8840"/>
</linearGradient>
<linearGradient id="paint3_linear_38_2546" x1="3.5689" y1="2.63601" x2="1.9579" y2="13.736" gradientUnits="userSpaceOnUse">
<stop stop-color="white"/>
<stop offset="1" stop-color="white" stop-opacity="0.01"/>
</linearGradient>
</defs>
</svg>

<svg xmlns="http://www.w3.org/2000/svg" width="16" height="16" fill="none"><path fill="url(#a)" d="M11.95 5.293c0-.59-.16-1.141-.443-1.62-.748-.74-2.375-.912-2.78-.003-.414.932.698 1.97 1.184 1.887.619-.105-.11-1.472-.11-1.472.947 1.718.729 1.192-.982 2.769s-3.459 4.905-3.714 5.045l-.034.017h6.711c.119 0 .195-.12.142-.222L10.17 8.35a.15.15 0 0 1 .062-.201c1.027-.568 1.719-1.633 1.719-2.856"/><path fill="url(#b)" d="M11.95 5.293c0-.59-.16-1.141-.443-1.62-.748-.74-2.375-.912-2.78-.003-.414.932.698 1.97 1.184 1.887.619-.105-.11-1.472-.11-1.472.947 1.718.729 1.192-.982 2.769s-3.459 4.905-3.714 5.045l-.034.017h6.711c.119 0 .195-.12.142-.222L10.17 8.35a.15.15 0 0 1 .062-.201c1.027-.568 1.719-1.633 1.719-2.856"/><path fill="#F07178" d="M5.105 11.898c.255-.14 2.002-3.47 3.713-5.046s1.93-1.052.983-2.769c0 0-3.622 4.889-4.933 7.307"/><path fill="#FC8289" d="M5.615 7.518c2.446-4.33 2.767-4.766 4.041-4.766.67 0 1.345.29 1.782.808A3.45 3.45 0 0 0 8.582 2H4.426a.156.156 0 0 0-.158.152v8.064c.247-.615.668-1.494 1.347-2.698"/><path fill="url(#c)" d="M8.818 6.852c-1.71 1.577-3.458 4.906-3.713 5.046s-.683.158-.91-.088c-.242-.26-.619-.683 1.42-4.292C8.06 3.188 8.38 2.75 9.655 2.75c.67 0 1.346.291 1.783.808l.07.114c-.747-.741-2.375-.913-2.779-.003-.415.932.697 1.969 1.183 1.887.62-.105-.109-1.472-.109-1.472.945 1.715.726 1.19-.985 2.767"/><path fill="url(#d)" d="M5.815 7.71c2.446-4.33 2.767-4.766 4.04-4.766.552 0 1.108.198 1.53.556a2.36 2.36 0 0 0-1.73-.749c-1.274 0-1.594.437-4.04 4.767-2.039 3.61-1.662 4.031-1.42 4.292a.6.6 0 0 0 .116.095c-.213-.298-.307-.99 1.504-4.195" opacity=".3"/><defs><linearGradient id="a" x1="6.671" x2="9.508" y1="9.133" y2="9.517" gradientUnits="userSpaceOnUse"><stop stop-color="#FF6533"/><stop offset=".157" stop-color="#FF5633"/><stop offset=".434" stop-color="#FF4333"/><stop offset=".714" stop-color="#FF3733"/><stop offset="1" stop-color="#F33"/></linearGradient><linearGradient id="b" x1="5.023" x2="10.604" y1="9.669" y2="12.178" gradientUnits="userSpaceOnUse"><stop stop-color="#AC4142"/><stop offset="1" stop-color="#D14748"/></linearGradient><linearGradient id="c" x1="6.744" x2="7.862" y1="7.756" y2="8.238" gradientUnits="userSpaceOnUse"><stop stop-color="#F4BF75"/><stop offset="1" stop-color="#FB8840"/></linearGradient><linearGradient id="d" x1="3.569" x2="1.958" y1="2.636" y2="13.736" gradientUnits="userSpaceOnUse"><stop stop-color="#fff"/><stop offset="1" stop-color="#fff" stop-opacity=".01"/></linearGradient></defs></svg>
